file-check.svg

<svg fill="currentColor" viewBox="0 0 24 24"><path d="m23.5 17-5 5-3.5-3.5 1.5-1.5 2 2 3.5-3.5zM6 2c-1.11 0-2 .89-2 2v16c0 1.11.89 2 2 2h7.81c-.53-.91-.81-1.95-.81-3 0-3.31 2.69-6 6-6 .34 0 .67.03 1 .08V8l-6-6m-1 1.5L18.5 9H13Z"/></svg>

<svg  viewBox="0 0 24 24" fill="currentColor"><path  d="M23.5 17L18.5 22L15 18.5L16.5 17L18.5 19L22 15.5L23.5 17M6 2C4.89 2 4 2.89 4 4V20C4 21.11 4.89 22 6 22H13.81C13.28 21.09 13 20.05 13 19C13 15.69 15.69 13 19 13C19.34 13 19.67 13.03 20 13.08V8L14 2M13 3.5L18.5 9H13Z"/></svg>
